icons/add-rasters-32.svg

<svg xmlns="http://www.w3.org/2000/svg" viewBox="0 0 32 32"><path d="M19 8h3v2h-3zm-6 10h3v-2h-3zm-5 9h3v-3H8z" opacity=".5"/><path d="M15 4h3v3h-3zm8 3h3V4h-3zM9 15h3v-3H9zm8 0h3v-3h-3zM4 23h3v-3H4zm8-3h3v3h-3z" opacity=".25"/><path d="M15 3h-1v7h1V8h3v2h1V8h3v4h5V3zm3 4h-3V4h3zm4 0h-3V4h3zm4 4h-3V8h3zm0-4h-3V4h3zM9 11H8v7h1v-2h3v2h1v-2h3v2h1v-2h3v3h-3v1h4v-9zm3 4H9v-3h3zm4 0h-3v-3h3zm4 0h-3v-3h3zM4 19H3v9h13v-9zm7 1v3H8v-3zm-4 0v3H4v-3zm-3 7v-3h3v3zm4 0v-3h3v3zm4 0v-3h3v3zm3-4h-3v-3h3zm9 7v-5.001h-5V24h5v-5h1v5h5v.999h-5V30z"/><path fill="none" d="M0 0h32v32H0z"/></svg>

<svg id="icons" xmlns="http://www.w3.org/2000/svg" viewBox="0 0 32 32"><defs><style>.cls-1{opacity:0.5;}.cls-2{opacity:0.25;}.cls-3{fill:none;}</style></defs><path class="cls-1" d="M19,8h3v2H19ZM13,18h3V16H13ZM8,27h3V24H8Z"/><path class="cls-2" d="M15,4h3V7H15Zm8,3h3V4H23ZM9,15h3V12H9Zm8,0h3V12H17ZM4,23H7V20H4Zm8-3h3v3H12Z"/><path d="M15,3H14v7h1V8h3v2h1V8h3v4h5V3Zm3,4H15V4h3Zm4,0H19V4h3Zm4,4H23V8h3Zm0-4H23V4h3ZM9,11H8v7H9V16h3v2h1V16h3v2h1V16h3v3H17v1h4V11Zm3,4H9V12h3Zm4,0H13V12h3Zm4,0H17V12h3ZM4,19H3v9H16V19Zm7,1v3H8V20ZM7,20v3H4V20ZM4,27V24H7v3Zm4,0V24h3v3Zm4,0V24h3v3Zm3-4H12V20h3Zm9,7V24.999H19V24h5V19h1v5h5v.999H25V30Z"/><rect class="cls-3" width="32" height="32"/></svg>
